img/assets/phone_icon.svg

<svg width="59" height="59" viewBox="0 0 59 59" fill="none" xmlns="http://www.w3.org/2000/svg">
<g clip-path="url(#clip0_409_144)">
<path fill-rule="evenodd" clip-rule="evenodd" d="M24.1868 22.5002C18.7402 25.6447 27.0505 41.2242 33.0105 37.7832C34.0689 39.6164 37.4781 45.5213 38.5365 47.3544C36.0219 48.8063 33.8933 49.7215 30.978 48.0549C22.8834 43.4276 13.973 28.0009 14.227 18.7989C14.315 15.6029 16.198 14.3507 18.661 12.9287C19.7194 14.7619 23.1286 20.6667 24.187 22.4999L24.1868 22.5002Z" fill="black"/>
<path fill-rule="evenodd" clip-rule="evenodd" d="M26.471 22.24C25.8825 22.5798 25.1252 22.377 24.7854 21.7884L19.5759 12.7652C19.2361 12.1766 19.4389 11.4193 20.0275 11.0795L22.7655 9.49874C23.354 9.1589 24.1115 9.36189 24.4513 9.95044L29.6608 18.9735C30.0005 19.562 29.7977 20.3193 29.2092 20.6591L26.4712 22.2399L26.471 22.24Z" fill="black"/>
<path fill-rule="evenodd" clip-rule="evenodd" d="M40.7025 46.8903C40.114 47.2301 39.3567 47.0273 39.0169 46.4387L33.8074 37.4155C33.4675 36.8269 33.6703 36.0696 34.2589 35.7299L36.9969 34.1491C37.5855 33.8093 38.3429 34.0123 38.6827 34.6008L43.8922 43.6239C44.232 44.2124 44.0291 44.9698 43.4406 45.3095L40.7026 46.8903L40.7025 46.8903Z" fill="black"/>
<path d="M29.1413 0H29.1417V0.006787C37.1917 0.0069104 44.4767 3.26679 49.7457 8.53639C55.015 13.8057 58.2748 21.0904 58.275 29.1404H58.2818V29.1417H58.275C58.2749 37.1917 55.015 44.4767 49.7454 49.7457C44.476 55.015 37.1914 58.2748 29.1414 58.275V58.2818H29.1401V58.275C21.0901 58.2749 13.8051 55.015 8.53609 49.7454C3.26679 44.476 0.006987 37.1914 0.006787 29.1414H0V29.1401H0.006787C0.0069104 21.0901 3.26679 13.8051 8.53639 8.53609C13.8057 3.26679 21.0904 0.006987 29.1404 0.006787V0H29.1413V0ZM29.1417 3.4758V3.48259H29.1404V3.4758C22.0612 3.47599 15.6464 6.3511 10.9994 10.9984C6.35169 15.646 3.47649 22.0614 3.47649 29.1404H3.48327V29.1418H3.47649C3.47667 36.221 6.35179 42.6358 10.9991 47.2828C15.6467 51.9305 22.0621 54.8057 29.1411 54.8057V54.7989H29.1424V54.8057C36.2216 54.8055 42.6364 51.9304 47.2834 47.2831C51.9311 42.6355 54.8063 36.2201 54.8063 29.1411H54.7996V29.1397H54.8063C54.8062 22.0605 51.931 15.6457 47.2837 10.9987C42.6361 6.351 36.2207 3.4758 29.1417 3.4758V3.4758Z" fill="black"/>
</g>
<defs>
<clipPath id="clip0_409_144">
<rect width="58.282" height="58.282" fill="white"/>
</clipPath>
</defs>
</svg>

<svg width="59" height="59" viewBox="0 0 59 59" fill="none" xmlns="http://www.w3.org/2000/svg"><g clip-path="url(#a)" fill="#000"><path fill-rule="evenodd" clip-rule="evenodd" d="M24.187 22.5c-5.447 3.145 2.863 18.724 8.823 15.283l5.526 9.571c-2.514 1.452-4.643 2.367-7.558.7-8.095-4.626-17.005-20.053-16.751-29.255.088-3.196 1.971-4.448 4.434-5.87l5.526 9.57v.001ZM26.471 22.24a1.236 1.236 0 0 1-1.686-.452l-5.21-9.023a1.236 1.236 0 0 1 .453-1.686l2.738-1.58a1.237 1.237 0 0 1 1.685.451l5.21 9.024c.34.588.137 1.345-.452 1.685l-2.738 1.58v.001ZM40.703 46.89a1.236 1.236 0 0 1-1.686-.451l-5.21-9.023a1.236 1.236 0 0 1 .452-1.686l2.738-1.58a1.237 1.237 0 0 1 1.686.45l5.21 9.024c.339.588.136 1.346-.452 1.685l-2.738 1.581Z"/><path d="M29.141 0v.007c8.05 0 15.336 3.26 20.605 8.53a29.046 29.046 0 0 1 8.529 20.603h.007v.002h-.007c0 8.05-3.26 15.335-8.53 20.604a29.046 29.046 0 0 1-20.604 8.529v.007-.007c-8.05 0-15.336-3.26-20.605-8.53a29.046 29.046 0 0 1-8.53-20.604H0h.007c0-8.05 3.26-15.336 8.53-20.605A29.046 29.046 0 0 1 29.14.006V0h.001Zm0 3.476v.007-.007c-7.08 0-13.495 2.875-18.142 7.522-4.647 4.648-7.523 11.063-7.523 18.142h.007v.002h-.007c0 7.079 2.876 13.494 7.523 18.14 4.648 4.649 11.063 7.524 18.142 7.524v-.007h.001v.007c7.08 0 13.494-2.876 18.141-7.523 4.648-4.648 7.523-11.063 7.523-18.142H54.8v-.001h.006c0-7.08-2.875-13.494-7.522-18.141C42.636 6.35 36.22 3.476 29.142 3.476Z"/></g><defs><clipPath id="a"><path fill="#fff" d="M0 0h58.282v58.282H0z"/></clipPath></defs></svg>
